X:1
T:Title
L:1/8
Q:1/4=110
M:4/4
K:C
V:1 treble nm="Church Organ, Staff"
V:1
 G2 G2- G/ z/ E E2 | G2 G2- G/ z/ D D2 | E2 F2 G2 A2 | B2 G6 | G2 G2- G/ z/ E E2 | %5
w: By~Samuel~Augustus~Ward,~1882 * * * *|||||
 G2 G2- G/ z/ D D2 | d2 ^c2 d2 e2 | A2 d6 | G2 e2- e/ z/ e d2 | c2 c2- c/ z/ B B2 | c2 d2 B2 A2 | %11
w: ||||||
 G2 c6 | c2 c2- c/ z/ A A2 | c2 c2- c/ z/ G G2 | G2 A2 c2 G2 | d2 c6 |] %16
w: |||||

